X: 1
T: Dangerous Dan's
M: 6/8
L: 1/8
R: jig
K: Gmaj
|: ~G3 E2{AE}D | GB/c/d ~g3 | fed AB/c/d | BAG E{A}GF |
~G3 E2{AE}D | GB/c/d gdg | {fg}fdG {FG}FDg |1 {fg}f dB {B}AGF :|2 {fg}f d(f  f)ga ||
|: (ab)g e2{ae}d | bgc' bag | a2g {fg}fdg | {fg}fdg fga |
(ab)g e2{ae}d | bgc' bag |1 a2g {fg}fdg | fga ~g3 :|2 a2g {fg}fdB | {Ac}AGF ~G3 ||
